src/Images/skol_icon.svg

<svg width="231" height="110" viewBox="0 0 231 110" fill="none" xmlns="http://www.w3.org/2000/svg">
<path d="M183.582 54.27L191.869 15.77C192.486 12.78 193.082 10.476 193.454 8.31401C194.16 4.32401 194.954 2.121 191.423 2.121H174.352C174.723 4.13175 174.857 6.17903 174.752 8.22101C174.602 10.7611 174.248 13.2851 173.696 15.769L165.926 53.403C165.425 55.9629 164.744 58.4845 163.889 60.949C163.101 63.0699 162.116 65.1122 160.947 67.049H199.089L208.001 48.506C197.344 53.877 193.329 53.655 183.581 54.268M98.292 54.258C95.014 48.614 86.941 32.434 86.941 32.434C86.941 32.434 108.241 8.55201 110.572 6.49701C112.352 4.86733 114.272 3.39733 116.31 2.104L96.131 2.11C95.8585 2.80634 95.4881 3.46027 95.031 4.052C94.3455 4.94024 93.6075 5.78675 92.821 6.58701L73.54 28.667C74.132 25.795 76.981 11.867 77.597 8.916C78.338 5.416 78.842 2.108 75.576 2.108H58.886C59.2528 4.11657 59.387 6.16071 59.286 8.2C59.1367 10.7416 58.787 13.2675 58.24 15.754L50.479 53.393C49.9739 55.9524 49.2899 58.4733 48.432 60.937C47.6452 63.0563 46.6609 65.097 45.492 67.032H62.603C66.503 67.032 66.703 64.967 67.442 59.926C67.684 58.27 71.318 39.711 71.318 39.711C71.318 39.711 77.074 52.461 80.955 59.411C86.582 69.472 96.855 70.229 100.642 70.229C106.508 70.229 109.961 69.343 110.263 68.714C107.876 66.92 103.372 63.031 98.293 54.253M32.187 25.902C27.043 22.127 24.494 19.654 24.644 15.869C24.829 10.81 30.111 8.823 34.056 8.823C41.719 8.823 48.183 18.051 48.183 18.051C50.028 10.497 50.722 7.651 51.748 3.112C46.095 1.12249 40.1545 0.0712756 34.162 0C15.803 0 6.962 11.86 6.962 21.159C6.956 32.254 13.851 35.815 20.376 40.811C24.209 43.74 28.202 46.133 28.193 51.448C28.193 56.274 24.433 58.587 19.793 58.414C10.146 58.037 4.6 46.497 4.6 46.497C2.539 54.511 1.39 58.831 0 64.642C6.41381 67.5772 13.3969 69.0592 20.45 68.982C34.436 68.982 46.797 61.627 46.799 46.532C46.799 37.638 42.376 33.376 32.186 25.903M165.68 27.88C165.68 9.807 153.323 0.0380107 138.3 0.0360107C121.423 0.0360107 100.964 15.547 100.96 38.412C101.072 44.1142 102.794 49.6684 105.929 54.433C105.603 52.514 105.44 50.5706 105.443 48.624C105.453 27.042 119.59 14.165 133.043 14.165C140.823 14.165 146.771 19.313 146.771 28.14C146.771 37.04 140.185 44.14 134.04 47.476L136.679 35.976L109.199 59.055C117.59 68.464 127.466 74.541 146.505 76.006C142.954 73.197 139.818 69.9012 137.188 66.216C158.888 58.131 165.669 39.756 165.679 27.886" fill="#CE0037"/>
<path d="M109.201 59.049L136.681 35.97L134.042 47.47C140.187 44.132 146.769 37.036 146.772 28.134C146.772 19.308 140.824 14.16 133.044 14.16C119.591 14.16 105.454 27.037 105.444 48.618C105.441 50.5646 105.603 52.508 105.93 54.427C102.795 49.6625 101.072 44.1082 100.961 38.406C100.961 15.541 121.423 0.0259988 138.3 0.0299988C153.323 0.0299988 165.68 9.80099 165.68 27.874C165.67 39.744 158.89 58.119 137.189 66.204C139.819 69.8893 142.956 73.1851 146.507 75.994C127.467 74.534 117.591 68.458 109.201 59.049ZM100.642 70.236C96.857 70.236 86.582 69.479 80.955 59.419C77.073 52.465 71.318 39.719 71.318 39.719C71.318 39.719 67.684 58.278 67.442 59.934C66.699 64.974 66.499 67.039 62.603 67.039H45.492C46.6609 65.104 47.6452 63.0633 48.432 60.944C49.2903 58.4804 49.9743 55.9595 50.479 53.4L58.243 15.762C58.79 13.2755 59.1397 10.7496 59.289 8.20801C59.3901 6.16839 59.2559 4.12388 58.889 2.11499H75.579C78.845 2.11499 78.341 5.425 77.6 8.923C76.984 11.874 74.135 25.802 73.543 28.674L92.825 6.59399C93.6116 5.79354 94.3496 4.94671 95.035 4.05801C95.4921 3.46661 95.8624 2.81302 96.1349 2.117L116.314 2.11099C114.276 3.40405 112.356 4.87406 110.576 6.504C108.241 8.56 86.944 32.441 86.944 32.441C86.944 32.441 95.017 48.621 98.296 54.265C103.375 63.043 107.878 66.932 110.266 68.726C109.966 69.354 106.519 70.24 100.666 70.24L100.642 70.236ZM0.000976562 64.641C1.39198 58.83 2.53995 54.511 4.60095 46.496C4.60095 46.496 10.147 58.035 19.794 58.413C24.435 58.587 28.194 56.273 28.194 51.447C28.204 46.132 24.211 43.74 20.377 40.811C13.852 35.811 6.95695 32.254 6.96295 21.159C6.96295 11.859 15.8 0.004 34.163 0C40.1554 0.0713474 46.0959 1.12256 51.749 3.112C50.723 7.646 50.028 10.497 48.183 18.051C48.183 18.051 41.72 8.82199 34.057 8.82199C30.111 8.82199 24.83 10.809 24.645 15.868C24.496 19.653 27.045 22.127 32.189 25.901C42.379 33.375 46.806 37.637 46.802 46.531C46.802 61.625 34.439 68.982 20.453 68.981H20.416C13.3746 69.053 6.40408 67.5711 0.000976562 64.641ZM160.946 67.051C162.116 65.1144 163.101 63.072 163.888 60.951C164.743 58.4862 165.424 55.9643 165.926 53.404L173.697 15.768C174.25 13.2841 174.603 10.7601 174.754 8.22C174.859 6.17802 174.725 4.13073 174.354 2.12H191.425C194.957 2.12 194.163 4.31999 193.456 8.31299C193.085 10.475 192.488 12.778 191.871 15.768L183.585 54.268C193.333 53.654 197.348 53.876 208.005 48.505L199.093 67.049L160.946 67.051Z" fill="white"/>
<path d="M26.2776 104H23.9451L22.0389 98.9587H14.4143L12.621 104H10.2759L17.1732 86.0169H19.3552L26.2776 104ZM21.3492 97.0651L18.5276 89.4028C18.4356 89.152 18.3436 88.7507 18.2517 88.1989H18.2015C18.1179 88.7089 18.0218 89.1102 17.9131 89.4028L15.1165 97.0651H21.3492ZM38.2342 97.203V104H36.1274V86.0169H41.0684C42.9913 86.0169 44.4794 86.4851 45.5328 87.4214C46.5946 88.3578 47.1255 89.6787 47.1255 91.3842C47.1255 93.0897 46.5361 94.4859 45.3573 95.5728C44.1868 96.6596 42.6025 97.203 40.6044 97.203H38.2342ZM38.2342 87.923V95.2969H40.4414C41.8961 95.2969 43.0038 94.9666 43.7646 94.3062C44.5338 93.6373 44.9183 92.6968 44.9183 91.4846C44.9183 89.1102 43.5138 87.923 40.7047 87.923H38.2342ZM70.6069 104H68.0988L65.089 98.9587C64.8131 98.4905 64.5456 98.0934 64.2864 97.7674C64.0273 97.4329 63.7597 97.1612 63.4838 96.9522C63.2163 96.7432 62.9237 96.5927 62.606 96.5008C62.2967 96.4004 61.9455 96.3503 61.5526 96.3503H59.822V104H57.7152V86.0169H63.0825C63.8684 86.0169 64.5916 86.1172 65.2521 86.3179C65.9209 86.5101 66.4978 86.8069 66.9827 87.2082C67.4759 87.6095 67.8605 88.1112 68.1364 88.7131C68.4123 89.3067 68.5502 90.0048 68.5502 90.8074C68.5502 91.4344 68.4541 92.0113 68.2618 92.538C68.0779 93.0563 67.8103 93.5203 67.4592 93.93C67.1164 94.3396 66.6984 94.6907 66.2051 94.9834C65.7202 95.2676 65.1726 95.4892 64.5623 95.648V95.6982C64.8633 95.8319 65.1225 95.9866 65.3398 96.1622C65.5656 96.3294 65.7788 96.53 65.9794 96.7641C66.1801 96.9982 66.3765 97.2657 66.5688 97.5667C66.7695 97.8593 66.991 98.2021 67.2335 98.595L70.6069 104ZM59.822 87.923V94.4441H62.6813C63.208 94.4441 63.6929 94.3647 64.136 94.2058C64.5874 94.047 64.9762 93.8213 65.3022 93.5287C65.6283 93.2277 65.8833 92.864 66.0672 92.4376C66.2511 92.0029 66.3431 91.518 66.3431 90.9829C66.3431 90.0215 66.0296 89.2732 65.4025 88.7382C64.7839 88.1948 63.8851 87.923 62.7063 87.923H59.822ZM89.8119 104H80.2811V86.0169H89.4106V87.923H82.3879V93.9049H88.8839V95.7985H82.3879V102.094H89.8119V104ZM99.6241 103.273V100.79C99.9084 101.04 100.247 101.266 100.64 101.467C101.041 101.667 101.459 101.839 101.894 101.981C102.337 102.115 102.78 102.219 103.223 102.294C103.666 102.37 104.076 102.407 104.452 102.407C105.748 102.407 106.714 102.169 107.349 101.693C107.993 101.208 108.315 100.514 108.315 99.6108C108.315 99.1259 108.206 98.7037 107.989 98.3442C107.78 97.9847 107.487 97.6587 107.111 97.3661C106.735 97.0651 106.287 96.7808 105.769 96.5133C105.259 96.2374 104.707 95.949 104.114 95.648C103.487 95.3303 102.901 95.0084 102.358 94.6824C101.815 94.3563 101.342 93.9968 100.941 93.6039C100.54 93.211 100.222 92.7679 99.9878 92.2746C99.7621 91.773 99.6492 91.1878 99.6492 90.5189C99.6492 89.6996 99.829 88.989 100.188 88.387C100.548 87.7767 101.02 87.2751 101.606 86.8822C102.191 86.4892 102.855 86.1966 103.599 86.0043C104.352 85.8121 105.117 85.7159 105.894 85.7159C107.667 85.7159 108.958 85.9291 109.769 86.3555V88.7256C108.708 87.9899 107.345 87.6221 105.681 87.6221C105.221 87.6221 104.762 87.6722 104.302 87.7726C103.842 87.8645 103.432 88.0192 103.073 88.2366C102.713 88.4539 102.421 88.734 102.195 89.0768C101.969 89.4195 101.856 89.8376 101.856 90.3308C101.856 90.7906 101.94 91.1878 102.107 91.5222C102.283 91.8566 102.538 92.1617 102.872 92.4376C103.207 92.7135 103.612 92.9811 104.089 93.2402C104.573 93.4994 105.129 93.7837 105.756 94.093C106.4 94.4107 107.011 94.7451 107.587 95.0962C108.164 95.4474 108.67 95.8361 109.105 96.2625C109.54 96.6889 109.882 97.1612 110.133 97.6796C110.392 98.1979 110.522 98.7915 110.522 99.4603C110.522 100.347 110.346 101.099 109.995 101.718C109.652 102.328 109.184 102.825 108.591 103.21C108.005 103.595 107.328 103.87 106.559 104.038C105.79 104.213 104.979 104.301 104.126 104.301C103.842 104.301 103.491 104.276 103.073 104.226C102.655 104.184 102.228 104.117 101.794 104.025C101.359 103.941 100.945 103.837 100.552 103.712C100.168 103.578 99.8582 103.431 99.6241 103.273ZM130.83 104H121.3V86.0169H130.429V87.923H123.406V93.9049H129.902V95.7985H123.406V102.094H130.83V104ZM155.98 104H153.396L144.142 89.6662C143.907 89.3067 143.715 88.9305 143.565 88.5375H143.489C143.556 88.9221 143.59 89.7456 143.59 91.008V104H141.483V86.0169H144.217L153.221 100.125C153.597 100.71 153.84 101.111 153.948 101.329H153.998C153.915 100.811 153.873 99.9285 153.873 98.6828V86.0169H155.98V104ZM178.521 87.923H173.329V104H171.222V87.923H166.043V86.0169H178.521V87.923ZM200.71 104H198.378L196.472 98.9587H188.847L187.054 104H184.709L191.606 86.0169H193.788L200.71 104ZM195.782 97.0651L192.96 89.4028C192.868 89.152 192.776 88.7507 192.684 88.1989H192.634C192.551 88.7089 192.454 89.1102 192.346 89.4028L189.549 97.0651H195.782Z" fill="#B00039"/>
<path d="M21 102.302H18.667L16.761 97.261H9.13599L7.34302 102.302H5L11.9 84.3189H14.082L21 102.302ZM16.072 95.3669L13.25 87.7049C13.1245 87.3134 13.0322 86.912 12.974 86.5049H12.924C12.865 86.9129 12.7686 87.3146 12.636 87.7049L9.836 95.3669H16.072ZM32.944 95.5049V102.305H30.837V84.3189H35.778C37.3903 84.2157 38.9835 84.7146 40.249 85.719C40.7886 86.2222 41.2105 86.8383 41.4847 87.5233C41.7588 88.2083 41.8785 88.9454 41.835 89.6819C41.86 90.4658 41.7155 91.2459 41.4114 91.9689C41.1073 92.6918 40.6508 93.3406 40.073 93.8709C38.7569 95.0088 37.0514 95.593 35.314 95.5009L32.944 95.5049ZM32.944 86.2249V93.5989H35.151C36.3456 93.6806 37.5291 93.3252 38.481 92.5989C38.8698 92.2448 39.1746 91.8083 39.373 91.3212C39.5715 90.8342 39.6586 90.309 39.628 89.7839C39.628 87.4099 38.2233 86.223 35.414 86.223L32.944 86.2249ZM65.304 102.302H62.8L59.79 97.261C59.55 96.8439 59.2827 96.443 58.99 96.0609C58.758 95.759 58.4893 95.4873 58.19 95.2519C57.9274 95.0476 57.6299 94.8924 57.312 94.7939C56.9678 94.6935 56.6105 94.645 56.252 94.65H54.521V102.3H52.414V84.3189H57.781C58.5168 84.3121 59.2497 84.4115 59.957 84.6139C60.5889 84.7941 61.1776 85.1002 61.688 85.5139C62.1801 85.9196 62.5725 86.4328 62.835 87.0139C63.1239 87.6756 63.2652 88.3922 63.249 89.1139C63.2557 89.7006 63.1603 90.284 62.967 90.8379C62.7868 91.349 62.5158 91.8232 62.167 92.2379C61.811 92.6551 61.3871 93.0091 60.913 93.2849C60.3973 93.5843 59.8423 93.8102 59.264 93.956V94.0059C59.5428 94.1267 59.806 94.2804 60.048 94.464C60.2792 94.6446 60.4913 94.8483 60.681 95.072C60.8974 95.3259 61.0978 95.5931 61.281 95.8719C61.4777 96.1686 61.697 96.5136 61.939 96.9069L65.304 102.302ZM54.519 86.2249V92.7459H57.378C57.875 92.7509 58.3692 92.6704 58.839 92.5079C59.2675 92.3603 59.662 92.128 59.999 91.8249C60.3301 91.521 60.5911 91.1488 60.764 90.7339C60.9535 90.2751 61.0474 89.7824 61.04 89.2859C61.063 88.8652 60.9914 88.4448 60.8304 88.0554C60.6695 87.666 60.4233 87.3176 60.11 87.0359C59.3374 86.4487 58.3782 86.1613 57.41 86.227L54.519 86.2249ZM84.5 102.302H74.97V84.3189H84.1V86.2249H77.077V92.2069H83.577V94.1009H77.077V100.401H84.5V102.302ZM94.312 101.575V99.0919C94.6225 99.3602 94.9659 99.5877 95.334 99.7689C95.7374 99.9722 96.1569 100.142 96.588 100.277C97.0212 100.414 97.4632 100.521 97.911 100.597C98.3168 100.669 98.7279 100.707 99.14 100.71C100.159 100.783 101.174 100.531 102.04 99.9889C102.514 99.5899 102.836 99.04 102.953 98.4315C103.069 97.8229 102.973 97.1929 102.68 96.6469C102.449 96.2672 102.149 95.9335 101.796 95.663C101.377 95.3389 100.93 95.0534 100.46 94.8099C99.946 94.5379 99.392 94.2516 98.798 93.951C98.1707 93.633 97.5853 93.3109 97.042 92.9849C96.5291 92.6823 96.0535 92.3205 95.625 91.9069C95.2303 91.5233 94.9093 91.0705 94.678 90.5709C94.421 89.9488 94.305 89.2775 94.3386 88.6052C94.3721 87.9329 94.5543 87.2764 94.872 86.6829C95.2254 86.0826 95.7097 85.5699 96.289 85.1829C96.9007 84.7783 97.5771 84.4813 98.289 84.305C99.0368 84.1128 99.8059 84.0161 100.578 84.0169C101.901 83.9346 103.226 84.1534 104.453 84.6569V87.0269C103.236 86.2486 101.808 85.8645 100.365 85.9269C99.9016 85.9273 99.4395 85.9755 98.986 86.0709C98.5527 86.1569 98.1371 86.3158 97.757 86.5409C97.4048 86.7512 97.1047 87.0384 96.879 87.3809C96.6441 87.756 96.5261 88.1926 96.54 88.6349C96.5295 89.0468 96.6175 89.4551 96.797 89.826C96.9846 90.1798 97.243 90.4912 97.556 90.7409C97.9369 91.0465 98.3464 91.3144 98.779 91.5409C99.2597 91.8003 99.8137 92.0846 100.441 92.3939C101.085 92.7119 101.695 93.0453 102.272 93.3939C102.821 93.7233 103.33 94.1145 103.789 94.5599C104.212 94.97 104.562 95.4492 104.824 95.977C105.087 96.5332 105.218 97.1427 105.206 97.7579C105.231 98.5407 105.052 99.3164 104.686 100.009C104.348 100.615 103.868 101.13 103.286 101.509C102.663 101.908 101.972 102.19 101.248 102.343C100.449 102.518 99.633 102.604 98.815 102.6C98.463 102.596 98.1115 102.573 97.762 102.531C97.344 102.485 96.9177 102.418 96.483 102.331C96.0651 102.248 95.6526 102.139 95.248 102.005C94.9184 101.904 94.603 101.76 94.312 101.575ZM125.518 102.302H115.987V84.3189H125.116V86.2249H118.093V92.2069H124.593V94.1009H118.093V100.401H125.517L125.518 102.302ZM150.667 102.302H148.084L138.829 87.968C138.597 87.6131 138.404 87.2346 138.252 86.839H138.177C138.265 87.6591 138.299 88.4843 138.277 89.309V102.301H136.17V84.3189H138.9L147.9 98.4269C148.276 99.0123 148.518 99.4123 148.627 99.6269H148.677C148.574 98.7489 148.532 97.8648 148.552 96.981V84.3189H150.659L150.667 102.302ZM173.208 86.2249H168.016V102.302H165.909V86.2249H160.73V84.3189H173.208V86.2249ZM195.385 102.302H193.052L191.146 97.261H183.521L181.728 102.302H179.383L186.283 84.3189H188.465L195.385 102.302ZM190.457 95.3669L187.635 87.7049C187.51 87.3134 187.417 86.912 187.359 86.5049H187.309C187.25 86.9129 187.154 87.3146 187.021 87.7049L184.221 95.3669H190.457Z" fill="white"/>
</svg>

<svg width="231" height="110" fill="none" xmlns="http://www.w3.org/2000/svg"><path d="m183.582 54.27 8.287-38.5c.617-2.99 1.213-5.294 1.585-7.456.706-3.99 1.5-6.193-2.031-6.193h-17.071c.371 2.01.505 4.058.4 6.1a47.778 47.778 0 0 1-1.056 7.548l-7.77 37.634a55.612 55.612 0 0 1-2.037 7.546 36.21 36.21 0 0 1-2.942 6.1h38.142l8.912-18.543c-10.657 5.371-14.672 5.149-24.42 5.762m-85.289-.01c-3.278-5.644-11.351-21.824-11.351-21.824s21.3-23.882 23.631-25.937c1.78-1.63 3.7-3.1 5.738-4.393l-20.179.006a7.865 7.865 0 0 1-1.1 1.942 28.172 28.172 0 0 1-2.21 2.535L73.54 28.667c.592-2.872 3.441-16.8 4.057-19.751.741-3.5 1.245-6.808-2.021-6.808h-16.69a26.59 26.59 0 0 1 .4 6.092 48.359 48.359 0 0 1-1.046 7.554l-7.761 37.639a55.786 55.786 0 0 1-2.047 7.544 36.06 36.06 0 0 1-2.94 6.095h17.111c3.9 0 4.1-2.065 4.839-7.106.242-1.656 3.876-20.215 3.876-20.215s5.756 12.75 9.637 19.7c5.627 10.061 15.9 10.818 19.687 10.818 5.866 0 9.319-.886 9.621-1.515-2.387-1.794-6.891-5.683-11.97-14.461M32.187 25.902c-5.144-3.775-7.693-6.248-7.543-10.033.185-5.059 5.467-7.046 9.412-7.046 7.663 0 14.127 9.228 14.127 9.228 1.845-7.554 2.539-10.4 3.565-14.939A54.942 54.942 0 0 0 34.162 0c-18.359 0-27.2 11.86-27.2 21.159-.006 11.095 6.889 14.656 13.414 19.652 3.833 2.929 7.826 5.322 7.817 10.637 0 4.826-3.76 7.139-8.4 6.966C10.146 58.037 4.6 46.497 4.6 46.497 2.539 54.511 1.39 58.831 0 64.642a47.884 47.884 0 0 0 20.45 4.34c13.986 0 26.347-7.355 26.349-22.45 0-8.894-4.423-13.156-14.613-20.629M165.68 27.88C165.68 9.807 153.323.038 138.3.036c-16.877 0-37.336 15.511-37.34 38.376a30.226 30.226 0 0 0 4.969 16.021 34.37 34.37 0 0 1-.486-5.809c.01-21.582 14.147-34.459 27.6-34.459 7.78 0 13.728 5.148 13.728 13.975 0 8.9-6.586 16-12.731 19.336l2.639-11.5-27.48 23.079c8.391 9.409 18.267 15.486 37.306 16.951a48.133 48.133 0 0 1-9.317-9.79c21.7-8.085 28.481-26.46 28.491-38.33" fill="#CE0037"/><path d="m109.201 59.049 27.48-23.079-2.639 11.5c6.145-3.338 12.727-10.434 12.73-19.336 0-8.826-5.948-13.974-13.728-13.974-13.453 0-27.59 12.877-27.6 34.458-.003 1.947.159 3.89.486 5.809a30.217 30.217 0 0 1-4.969-16.021c0-22.865 20.462-38.38 37.339-38.376 15.023 0 27.38 9.771 27.38 27.844-.01 11.87-6.79 30.245-28.491 38.33a48.132 48.132 0 0 0 9.318 9.79c-19.04-1.46-28.916-7.536-37.306-16.945Zm-8.559 11.187c-3.785 0-14.06-.757-19.687-10.817-3.882-6.954-9.637-19.7-9.637-19.7s-3.634 18.559-3.876 20.215c-.743 5.04-.943 7.105-4.839 7.105H45.492a36.06 36.06 0 0 0 2.94-6.095 55.66 55.66 0 0 0 2.047-7.544l7.764-37.638a48.359 48.359 0 0 0 1.046-7.554 26.587 26.587 0 0 0-.4-6.093h16.69c3.266 0 2.762 3.31 2.021 6.808-.616 2.951-3.465 16.879-4.057 19.751l19.282-22.08c.787-.8 1.525-1.647 2.21-2.536a7.859 7.859 0 0 0 1.1-1.941l20.179-.006a41.104 41.104 0 0 0-5.738 4.393c-2.335 2.056-23.632 25.937-23.632 25.937s8.073 16.18 11.352 21.824c5.079 8.778 9.582 12.667 11.97 14.461-.3.628-3.747 1.514-9.6 1.514l-.024-.004ZM.001 64.641c1.391-5.811 2.539-10.13 4.6-18.145 0 0 5.546 11.539 15.193 11.917 4.641.174 8.4-2.14 8.4-6.966.01-5.315-3.983-7.707-7.817-10.636-6.525-5-13.42-8.557-13.414-19.652 0-9.3 8.837-21.155 27.2-21.159a54.947 54.947 0 0 1 17.586 3.112c-1.026 4.534-1.721 7.385-3.566 14.939 0 0-6.463-9.229-14.126-9.229-3.946 0-9.227 1.987-9.412 7.046-.149 3.785 2.4 6.259 7.544 10.033 10.19 7.474 14.617 11.736 14.613 20.63 0 15.094-12.363 22.451-26.349 22.45h-.037a47.885 47.885 0 0 1-20.415-4.34Zm160.945 2.41a36.046 36.046 0 0 0 2.942-6.1 55.772 55.772 0 0 0 2.038-7.547l7.771-37.636a47.78 47.78 0 0 0 1.057-7.548 26.203 26.203 0 0 0-.4-6.1h17.071c3.532 0 2.738 2.2 2.031 6.193-.371 2.162-.968 4.465-1.585 7.455l-8.286 38.5c9.748-.614 13.763-.392 24.42-5.763l-8.912 18.544-38.147.002Z" fill="#fff"/><path d="M26.278 104h-2.333l-1.906-5.041h-7.625L12.621 104h-2.345l6.897-17.983h2.182L26.278 104Zm-4.929-6.935-2.821-7.662c-.092-.251-.184-.652-.276-1.204h-.05c-.084.51-.18.911-.289 1.204l-2.796 7.662h6.232Zm16.885.138V104h-2.107V86.017h4.941c1.923 0 3.411.468 4.465 1.404 1.062.937 1.593 2.258 1.593 3.963 0 1.706-.59 3.102-1.769 4.189-1.17 1.087-2.755 1.63-4.753 1.63h-2.37Zm0-9.28v7.374h2.207c1.455 0 2.563-.33 3.324-.99.769-.67 1.153-1.61 1.153-2.822 0-2.375-1.404-3.562-4.213-3.562h-2.47ZM70.607 104h-2.508l-3.01-5.041a10.45 10.45 0 0 0-.803-1.192 4.37 4.37 0 0 0-.802-.815 2.579 2.579 0 0 0-.878-.451c-.31-.1-.66-.15-1.053-.15h-1.731V104h-2.107V86.017h5.367c.786 0 1.51.1 2.17.3a4.722 4.722 0 0 1 1.73.891c.494.401.879.903 1.154 1.505.276.594.414 1.292.414 2.094 0 .627-.096 1.204-.288 1.731a4.36 4.36 0 0 1-.803 1.392c-.343.41-.76.76-1.254 1.053a6.437 6.437 0 0 1-1.643.665v.05c.301.134.56.289.778.464.226.167.439.368.64.602.2.234.396.502.589.803.2.292.422.635.665 1.028L70.607 104ZM59.822 87.923v6.521h2.86c.526 0 1.01-.08 1.454-.238.451-.159.84-.385 1.166-.677.326-.301.581-.665.765-1.091.184-.435.276-.92.276-1.455 0-.962-.313-1.71-.94-2.245-.62-.543-1.518-.815-2.697-.815h-2.884ZM89.812 104h-9.53V86.017h9.129v1.906h-7.023v5.982h6.496v1.894h-6.496v6.295h7.424V104Zm9.812-.727v-2.483c.284.25.623.476 1.016.677.401.2.819.372 1.254.514.443.134.886.238 1.329.313a7.3 7.3 0 0 0 1.229.113c1.296 0 2.262-.238 2.897-.714.644-.485.966-1.179.966-2.082 0-.485-.109-.907-.326-1.267a3.436 3.436 0 0 0-.878-.978 8.07 8.07 0 0 0-1.342-.853 71.625 71.625 0 0 0-1.655-.865 28.026 28.026 0 0 1-1.756-.966 7.615 7.615 0 0 1-1.417-1.078 4.632 4.632 0 0 1-.953-1.33c-.226-.501-.339-1.086-.339-1.755 0-.82.18-1.53.539-2.132.36-.61.832-1.112 1.418-1.505a6.424 6.424 0 0 1 1.993-.878 9.244 9.244 0 0 1 2.295-.288c1.773 0 3.064.213 3.875.64v2.37c-1.061-.736-2.424-1.104-4.088-1.104-.46 0-.919.05-1.379.15-.46.093-.87.247-1.229.465a2.72 2.72 0 0 0-.878.84c-.226.343-.339.76-.339 1.254 0 .46.084.857.251 1.191.176.335.431.64.765.916.335.275.74.543 1.217.802.484.26 1.04.544 1.667.853.644.318 1.255.652 1.831 1.003a8.38 8.38 0 0 1 1.518 1.166 5.07 5.07 0 0 1 1.028 1.418c.259.518.389 1.111.389 1.78 0 .887-.176 1.639-.527 2.258a4.224 4.224 0 0 1-1.404 1.492c-.586.385-1.263.66-2.032.828-.769.175-1.58.263-2.433.263-.284 0-.635-.025-1.053-.075a11.918 11.918 0 0 1-1.279-.201 10.938 10.938 0 0 1-1.242-.313 4.076 4.076 0 0 1-.928-.439Zm31.206.727h-9.53V86.017h9.129v1.906h-7.023v5.982h6.496v1.894h-6.496v6.295h7.424V104Zm25.15 0h-2.584l-9.254-14.334a5.907 5.907 0 0 1-.577-1.129h-.076c.067.385.101 1.209.101 2.471V104h-2.107V86.017h2.734l9.004 14.108c.376.585.619.986.727 1.204h.05c-.083-.518-.125-1.4-.125-2.646V86.017h2.107V104Zm22.541-16.077h-5.192V104h-2.107V87.923h-5.179v-1.906h12.478v1.906ZM200.71 104h-2.332l-1.906-5.041h-7.625L187.054 104h-2.345l6.897-17.983h2.182L200.71 104Zm-4.928-6.935-2.822-7.662c-.092-.251-.184-.652-.276-1.204h-.05c-.083.51-.18.911-.288 1.204l-2.797 7.662h6.233Z" fill="#B00039"/><path d="M21 102.302h-2.333l-1.906-5.041H9.136l-1.793 5.041H5l6.9-17.983h2.182L21 102.302Zm-4.928-6.935-2.822-7.662a7.329 7.329 0 0 1-.276-1.2h-.05a6.72 6.72 0 0 1-.288 1.2l-2.8 7.662h6.236Zm16.872.138v6.8h-2.107V84.319h4.941a6.522 6.522 0 0 1 4.471 1.4 5.016 5.016 0 0 1 1.586 3.963 5.45 5.45 0 0 1-1.762 4.189 6.731 6.731 0 0 1-4.759 1.63l-2.37.004Zm0-9.28v7.374h2.207a4.935 4.935 0 0 0 3.33-1 3.529 3.529 0 0 0 1.147-2.815c0-2.374-1.405-3.561-4.214-3.561l-2.47.002Zm32.36 16.077H62.8l-3.01-5.041c-.24-.417-.507-.818-.8-1.2a4.578 4.578 0 0 0-.8-.81 2.76 2.76 0 0 0-.878-.457 3.606 3.606 0 0 0-1.06-.144h-1.731v7.65h-2.107V84.319h5.367a7.653 7.653 0 0 1 2.176.295 4.87 4.87 0 0 1 1.731.9c.492.406.884.919 1.147 1.5a4.97 4.97 0 0 1 .414 2.1 5.057 5.057 0 0 1-.282 1.724c-.18.511-.451.985-.8 1.4-.356.417-.78.771-1.254 1.047a6.4 6.4 0 0 1-1.649.671v.05c.279.12.542.274.784.458.231.18.443.384.633.608.216.254.417.521.6.8.197.297.416.642.658 1.035l3.365 5.395ZM54.519 86.225v6.52h2.859c.497.006.991-.075 1.461-.237.428-.148.823-.38 1.16-.683.331-.304.592-.676.765-1.091a3.65 3.65 0 0 0 .276-1.448 2.818 2.818 0 0 0-.93-2.25 4.013 4.013 0 0 0-2.7-.809l-2.891-.002ZM84.5 102.302h-9.53V84.319h9.13v1.906h-7.023v5.982h6.5V94.1h-6.5v6.3H84.5v1.901Zm9.812-.727v-2.483c.31.268.654.496 1.022.677.403.203.823.373 1.254.508.433.137.875.244 1.323.32.406.072.817.11 1.229.113a4.815 4.815 0 0 0 2.9-.721 2.702 2.702 0 0 0 .64-3.342 3.592 3.592 0 0 0-.884-.984 8.8 8.8 0 0 0-1.336-.853 102.94 102.94 0 0 0-1.662-.859 28.178 28.178 0 0 1-1.756-.966 7.604 7.604 0 0 1-1.417-1.078 4.498 4.498 0 0 1-.947-1.336 4.553 4.553 0 0 1 .194-3.888c.353-.6.838-1.113 1.417-1.5a6.425 6.425 0 0 1 2-.878 9.157 9.157 0 0 1 2.289-.288 8.773 8.773 0 0 1 3.875.64v2.37a7.025 7.025 0 0 0-4.088-1.1c-.463 0-.925.048-1.379.144a3.903 3.903 0 0 0-1.229.47c-.352.21-.652.497-.878.84a2.23 2.23 0 0 0-.339 1.254c-.01.412.078.82.257 1.191.188.354.446.665.759.915.38.305.79.573 1.223.8.48.26 1.035.544 1.662.853.644.318 1.254.651 1.831 1 .549.33 1.058.72 1.517 1.166.423.41.773.89 1.035 1.417.263.556.394 1.166.382 1.78a4.51 4.51 0 0 1-.52 2.252 4.273 4.273 0 0 1-1.4 1.5 6.128 6.128 0 0 1-2.038.834c-.799.175-1.615.261-2.433.257a9.754 9.754 0 0 1-1.053-.069 14.733 14.733 0 0 1-1.279-.2c-.418-.083-.83-.192-1.235-.326a3.843 3.843 0 0 1-.936-.43Zm31.206.727h-9.531V84.319h9.129v1.906h-7.023v5.982h6.5V94.1h-6.5v6.3h7.424l.001 1.901Zm25.149 0h-2.583l-9.255-14.334a5.987 5.987 0 0 1-.577-1.129h-.075c.088.82.122 1.645.1 2.47v12.992h-2.107V84.319h2.73l9 14.108c.376.585.618.985.727 1.2h.05a19.017 19.017 0 0 1-.125-2.646V84.319h2.107l.008 17.983Zm22.541-16.077h-5.192v16.077h-2.107V86.225h-5.179v-1.906h12.478v1.906Zm22.177 16.077h-2.333l-1.906-5.041h-7.625l-1.793 5.041h-2.345l6.9-17.983h2.182l6.92 17.983Zm-4.928-6.935-2.822-7.662a7.36 7.36 0 0 1-.276-1.2h-.05c-.059.408-.155.81-.288 1.2l-2.8 7.662h6.236Z" fill="#fff"/></svg>
